svg/fluentui-system-icons/ic_fluent_play_24_regular.svg

<svg width="24" height="24" viewBox="0 0 24 24" fill="none" xmlns="http://www.w3.org/2000/svg">
<path d="M7.60846 4.61489C7.1087 4.34296 6.5 4.70472 6.5 5.27368V18.726C6.5 19.2949 7.1087 19.6567 7.60846 19.3848L19.97 12.6586C20.4921 12.3746 20.4921 11.6251 19.97 11.341L7.60846 4.61489ZM5 5.27368C5 3.56682 6.82609 2.48151 8.32538 3.2973L20.687 10.0235C22.2531 10.8756 22.2531 13.124 20.687 13.9762L8.32538 20.7024C6.82609 21.5181 5 20.4328 5 18.726V5.27368Z" fill="#212121"/>
</svg>

<svg xmlns="http://www.w3.org/2000/svg" width="24" height="24"><path d="M7.608 4.615a.75.75 0 0 0-1.108.659v13.452a.75.75 0 0 0 1.108.659l12.362-6.726a.75.75 0 0 0 0-1.318L7.608 4.615ZM5 5.274c0-1.707 1.826-2.792 3.325-1.977l12.362 6.726c1.566.853 1.566 3.101 0 3.953L8.325 20.702C6.826 21.518 5 20.432 5 18.726V5.274Z"/></svg>
